X:14014
T:Rebodixu (II)
T:Rumbo
C:Tradicional
S:Música Tradicional Asturiana, (C) Tello & Tito. Asturies, 2001.
S:http://pagina.de/MusTradAst <telloytito@asturies.org>
N:El Rebodixu ye un baille agarráu perpopular en tol conceyu de Tinéu.
N:Baillábase dando vueltes primero a la derecha y llueu a la izquierda siguiendo la melodía cantada.
N:Si se daba la oportunidá acompangábense los cantares cola curdión o la gaita.
N:Ye un baille relativamente modernu.
O:Tinéu
A:Asturies
Z:Danzas y Bailes I
M:3/8
L:1/8
Q:3/8=72
K:F
A/B/|c_dc/B/|ccc/_d/|_e_dc/B/|cAG/A/|AcB/A/|GFE/F/|G_AG/A/|G F2-|F z2|
|: BcB/_B/|GFE/F/|G_AG/A/|F3 :|


